public/images/icons/score.svg

<svg width="18" height="18" viewBox="0 0 18 18" fill="none" xmlns="http://www.w3.org/2000/svg">
<path fill-rule="evenodd" clip-rule="evenodd" d="M12.375 16.875C14.8603 16.875 16.875 14.8603 16.875 12.375C16.875 9.88972 14.8603 7.875 12.375 7.875C9.88972 7.875 7.875 9.88972 7.875 12.375C7.875 14.8603 9.88972 16.875 12.375 16.875ZM18 12.375C18 15.4816 15.4816 18 12.375 18C9.2684 18 6.75 15.4816 6.75 12.375C6.75 9.2684 9.2684 6.75 12.375 6.75C15.4816 6.75 18 9.2684 18 12.375Z" fill="white"/>
<path d="M10.6172 13.4374C10.6708 14.1079 11.2001 14.6305 12.1515 14.6924V15.1875H12.5735V14.689C13.557 14.6202 14.1328 14.0941 14.1328 13.3308C14.1328 12.6363 13.6929 12.2787 12.9061 12.0931L12.5735 12.014V10.6662C12.9955 10.7143 13.2637 10.9447 13.3281 11.2644H14.0684C14.0148 10.618 13.4604 10.1126 12.5735 10.0576V9.5625H12.1515V10.0679C11.311 10.1504 10.7388 10.6559 10.7388 11.371C10.7388 12.0037 11.1644 12.4059 11.8725 12.571L12.1515 12.6397V14.0701C11.7187 14.0047 11.4326 13.7675 11.3682 13.4374H10.6172ZM12.1479 11.9143C11.733 11.818 11.5077 11.622 11.5077 11.3263C11.5077 10.9963 11.7509 10.7487 12.1515 10.6765V11.9143H12.1479ZM12.6343 12.7532C13.1386 12.8701 13.371 13.0592 13.371 13.3927C13.371 13.7744 13.0813 14.0357 12.5735 14.0838V12.7395L12.6343 12.7532Z" fill="white"/>
<path d="M1.125 0C0.50368 0 0 0.50368 0 1.125V10.125C0 10.7463 0.50368 11.25 1.125 11.25H5.71833C5.78328 10.8628 5.8812 10.4868 6.00909 10.125H3.375C3.375 8.88236 2.36764 7.875 1.125 7.875V3.375C2.36764 3.375 3.375 2.36764 3.375 1.125H14.625C14.625 2.36764 15.6324 3.375 16.875 3.375V7.34376C17.3026 7.72649 17.6812 8.16293 18 8.64248V1.125C18 0.50368 17.4963 0 16.875 0H1.125Z" fill="white"/>
<path d="M11.2481 5.71865C11.2494 5.68759 11.25 5.65637 11.25 5.625C11.25 4.38236 10.2426 3.375 9 3.375C7.75736 3.375 6.75 4.38236 6.75 5.625C6.75 6.39507 7.13686 7.07478 7.72683 7.48039C8.67922 6.57567 9.8954 5.94599 11.2481 5.71865Z" fill="white"/>
</svg>

<svg xmlns="http://www.w3.org/2000/svg" width="18" height="18" fill="none"><path fill="#fff" fill-rule="evenodd" d="M12.375 16.875a4.5 4.5 0 1 0 0-9 4.5 4.5 0 0 0 0 9Zm5.625-4.5a5.625 5.625 0 1 1-11.25 0 5.625 5.625 0 0 1 11.25 0Z" clip-rule="evenodd"/><path fill="#fff" d="M10.617 13.437c.054.67.583 1.194 1.534 1.255v.495h.422v-.498c.984-.069 1.56-.595 1.56-1.358 0-.695-.44-1.052-1.227-1.238l-.333-.079v-1.348c.422.048.69.279.755.598h.74c-.053-.646-.608-1.151-1.495-1.206v-.495h-.421v.505c-.841.082-1.413.588-1.413 1.303 0 .633.425 1.035 1.133 1.2l.28.069v1.43c-.433-.065-.72-.303-.784-.633h-.75Zm1.53-1.523c-.414-.096-.64-.292-.64-.588 0-.33.244-.577.645-.65v1.238h-.004Zm.487.84c.505.116.737.305.737.639 0 .381-.29.643-.798.69V12.74l.061.014Z"/><path fill="#fff" d="M1.125 0C.504 0 0 .504 0 1.125v9c0 .621.504 1.125 1.125 1.125h4.593a6.7 6.7 0 0 1 .291-1.125H3.375a2.25 2.25 0 0 0-2.25-2.25v-4.5a2.25 2.25 0 0 0 2.25-2.25h11.25a2.25 2.25 0 0 0 2.25 2.25v3.969c.428.382.806.819 1.125 1.298V1.125C18 .504 17.496 0 16.875 0H1.125Z"/><path fill="#fff" d="M11.248 5.719A2.25 2.25 0 1 0 7.727 7.48a6.73 6.73 0 0 1 3.521-1.762Z"/></svg>
